!!!OTL: Tollite plausus
**kern
*staff1
=1-
*clefF4
*k[b-]
0F
=2
1D
1G
=3
1F
1C
=4
1F
2D\
2BB-/
=5
2F\
2F\
2G\
2G\
!!linebreak:original
=6
2F\
2G\
2D\
2D\
=7
!LO:TX:Y=-40:t=P
0G
=8
0F
=9
1D
1G
=10
1F
1C
=11
1F
2D\
2BB-/
=12
2F\
2F\
2G\
2G\
!!linebreak:original
=13
2F\
2C/
1D
=14
2GG/
2G\
2F\
2D\
=15
2A\
2F\
1B-
=16
1A
1F
=17
2D\
2G\
2F\
2D\
=18
1C
1F
=19
!!linebreak:original
2G\
2C/
1D
=20
1G
1G
=21
2G\
2B-\
2F\
2F\
=22
2.BB-/
4C/
2D\
2E\
=23
2F\
2G\
1F
=24
!!linebreak:original
!LO:TX:Y=-42:t=P
1BB-
1BB-
=25
2E-\
2BB-/
2F\
2F\
=26
2.BB-/
4C/
2D\
2E\
=27
2F\
2G\
1F
=28
0BB-
=29
!!pagebreak:original
1GG
1E-
=30
1C
1D
=31
1GG
1GG
=32
1E-
1C
=33
1D
2GG/
2G\
=34
!LO:TX:Y=117:t=P
2G\
2C/
1F
=35
!!linebreak:original
2D\
2BB-/
2BB-/
2BB-/
=36
1C
1F
=37
1D
2r
2G\
=38
2E-\
2C/
1D
=39
2GG/
2G\
2G\
2C/
=40
!!linebreak:original
!LO:TX:Y=-44:t=P
1F
2D\
2BB-/
=41
!LO:TX:Y=-46:t=P
2C/
2C/
1F
=42
!LO:TX:Y=-45:t=P
2D\
1D
2G\
=43
2E-\
2C/
1D
=44
0GG
==
*-
!!title: @{OTL}, @{GTL}, ed. @{ENC}
!!!pag:
!!!GTL: Hymnbook D
!!!EFL: 
!!!YEM: Creative Commons CC/BY/NC/SA 4.0
!!!ENC: Marcin Konik
!!!END: 2015-0m-dd
!!!EED: Marcin Konik
!!!EEV: 
!!!ONB: Encoded in vim by Marcin Konik
!!!CharacterEncoding: utf-8
!!!RDF**kern: l=long note in original notation
!!!RDF**kern: i=editorial accidental
!!muse2ps: z14jc180F
!!!COM: Anonim
!!!CDT: [?]
!!!TXO: Polish
!!!ODT: 
!!!GTL: Hymnbook D
!!!ARL: Opactwo św. Wojciecha, Staniątki 
!!!voices:	1
